img/Icons/fuel_oil.svg

<svg width="48" height="48" viewBox="0 0 48 48" fill="none" xmlns="http://www.w3.org/2000/svg">
<path d="M35.6129 6.19355H19.3549V4.64516H20.1291C20.5574 4.64516 20.9033 4.29813 20.9033 3.87097V0.774194C20.9033 0.347026 20.5574 0 20.1291 0H9.29035C8.86205 0 8.51616 0.347026 8.51616 0.774194V3.87097C8.51616 4.29813 8.86205 4.64516 9.29035 4.64516H10.0645V6.72392C8.2368 7.59564 6.96777 9.45665 6.96777 11.6129V42.5806C6.96777 45.5682 9.3996 48 12.3871 48H35.6129C38.6005 48 41.0323 45.5682 41.0323 42.5806V11.6129C41.0323 8.62462 38.6005 6.19355 35.6129 6.19355ZM39.4839 11.6129V23.6794L36.3871 20.5827V13.1613C36.3871 11.8809 35.3449 10.8387 34.0645 10.8387H26.6432L23.5464 7.74194H35.6129C37.7473 7.74194 39.4839 9.47858 39.4839 11.6129ZM34.8387 19.0343L28.1916 12.3871H34.0645C34.4917 12.3871 34.8387 12.7349 34.8387 13.1613V19.0343ZM10.0645 1.54839H19.3549V3.09677H10.0645V1.54839ZM11.6129 4.64516H17.8065V6.19355H12.3871C12.124 6.19355 11.867 6.21925 11.6129 6.25554V4.64516ZM35.6129 46.4516H12.3871C10.2528 46.4516 8.51616 44.715 8.51616 42.5806V11.6129C8.51616 9.47858 10.2528 7.74194 12.3871 7.74194H21.3569L39.4839 25.8689V42.5806C39.4839 44.715 37.7473 46.4516 35.6129 46.4516Z" fill="currentColor"/>
<path d="M20.6763 9.51716C20.5316 9.37162 20.335 9.29034 20.129 9.29034H13.1612C11.4533 9.29034 10.0645 10.6792 10.0645 12.3871V41.8065C10.0645 43.5144 11.4533 44.9032 13.1612 44.9032H34.8386C36.5466 44.9032 37.9354 43.5144 37.9354 41.8065V27.0968C37.9354 26.8908 37.8541 26.6942 37.7086 26.5494L20.6763 9.51716ZM36.387 41.8065C36.387 42.6604 35.6926 43.3549 34.8386 43.3549H13.1612C12.3073 43.3549 11.6128 42.6604 11.6128 41.8065V12.3871C11.6128 11.5332 12.3073 10.8387 13.1612 10.8387H19.8084L36.387 27.4174V41.8065Z" fill="currentColor"/>
<path d="M17.8066 34.6436C17.8066 37.5019 19.8552 39.8997 22.5709 40.2195C22.7856 40.2441 23.0007 40.2573 23.2135 40.2573C24.5415 40.2573 25.8302 39.7749 26.8252 38.89C27.9827 37.8617 28.6454 36.3856 28.6454 34.8387V34.6436C28.6454 33.1217 28.2605 31.6119 27.5321 30.2771L23.9057 23.6291C23.6346 23.1313 22.8174 23.1313 22.5463 23.6291L18.9199 30.2763C18.1915 31.6119 17.8066 33.1217 17.8066 34.6436ZM20.2793 31.018L23.226 25.6172L26.1727 31.0195C26.7772 32.1267 27.097 33.3803 27.097 34.6436V34.8387C27.097 35.9433 26.6233 36.998 25.7962 37.7325C24.9592 38.4768 23.8762 38.8132 22.7523 38.6817C20.8478 38.4571 19.355 36.6834 19.355 34.6436C19.355 33.3803 19.6748 32.1267 20.2793 31.018Z" fill="currentColor"/>
<path d="M26.3224 34.8387H24.774C24.774 35.6926 24.0795 36.3871 23.2256 36.3871V37.9355C24.9335 37.9355 26.3224 36.5466 26.3224 34.8387Z" fill="#389583"/>
</svg>

<svg xmlns="http://www.w3.org/2000/svg" viewBox="0 0 48 48"><defs><style>.cls-1{fill:#389583;}</style></defs><title>fuel_oil</title><g id="Layer_2" data-name="Layer 2"><path class="cls-1" d="M35.61,6.19H19.35V4.65h.78a.77.77,0,0,0,.77-.78V.77A.77.77,0,0,0,20.13,0H9.29a.77.77,0,0,0-.77.77v3.1a.77.77,0,0,0,.77.78h.77V6.72A5.45,5.45,0,0,0,7,11.61v31A5.42,5.42,0,0,0,12.39,48H35.61A5.42,5.42,0,0,0,41,42.58v-31A5.42,5.42,0,0,0,35.61,6.19Zm3.87,5.42V23.68l-3.09-3.1V13.16a2.33,2.33,0,0,0-2.33-2.32H26.64l-3.09-3.1H35.61A3.87,3.87,0,0,1,39.48,11.61ZM34.84,19l-6.65-6.64h5.87a.77.77,0,0,1,.78.77ZM10.06,1.55h9.29V3.1H10.06Zm1.55,3.1h6.2V6.19H12.39a5,5,0,0,0-.78.07Zm24,41.8H12.39a3.87,3.87,0,0,1-3.87-3.87v-31a3.87,3.87,0,0,1,3.87-3.87h9L39.48,25.87V42.58A3.87,3.87,0,0,1,35.61,46.45Z"/><path class="cls-1" d="M20.68,9.52a.78.78,0,0,0-.55-.23h-7a3.1,3.1,0,0,0-3.1,3.1V41.81a3.1,3.1,0,0,0,3.1,3.09H34.84a3.1,3.1,0,0,0,3.1-3.09V27.1a.79.79,0,0,0-.23-.55ZM36.39,41.81a1.55,1.55,0,0,1-1.55,1.54H13.16a1.55,1.55,0,0,1-1.55-1.54V12.39a1.55,1.55,0,0,1,1.55-1.55h6.65L36.39,27.42Z"/><path class="cls-1" d="M17.81,34.64a5.53,5.53,0,0,0,4.76,5.58c.22,0,.43,0,.64,0a5.42,5.42,0,0,0,5.44-5.42v-.2a9.1,9.1,0,0,0-1.12-4.36l-3.62-6.65a.8.8,0,0,0-1.36,0l-3.63,6.65A9.09,9.09,0,0,0,17.81,34.64ZM20.28,31l2.95-5.4L26.17,31a7.53,7.53,0,0,1,.93,3.62v.2a3.89,3.89,0,0,1-1.3,2.89,3.85,3.85,0,0,1-3.05,1,4,4,0,0,1-3.4-4A7.53,7.53,0,0,1,20.28,31Z"/><path class="cls-1" d="M26.32,34.84H24.77a1.55,1.55,0,0,1-1.54,1.55v1.55A3.1,3.1,0,0,0,26.32,34.84Z"/></g></svg>
